svgs/thin/ram.svg

<svg xmlns="http://www.w3.org/2000/svg" viewBox="0 0 640 512"><!--! Font Awesome Pro 6.5.1 by @fontawesome - https://fontawesome.com License - https://fontawesome.com/license (Commercial License) Copyright 2023 Fonticons, Inc. --><path d="M352 48c0-26.5 21.5-48 48-48s48 21.5 48 48V68c8.9-2.6 18.3-4 28-4c12.7 0 24.8 2.4 36 6.7V48c0-26.5 21.5-48 48-48s48 21.5 48 48v8c0 4.4-3.6 8-8 8s-8-3.6-8-8V48c0-17.7-14.3-32-32-32s-32 14.3-32 32V78.6c17.3 10.5 31.1 26.2 39.4 44.8L618.3 158c8.6 5.8 13.7 15.5 13.7 25.9c0 24-26 39.1-46.8 27.2l-9.2-5.3V240c0 53-43 96-96 96h-8c-53 0-96-43-96-96V205.8l-9.2 5.3C346 223 320 207.9 320 183.9c0-10.4 5.1-20 13.7-25.9l50.9-34.7c9.5-21.4 26.4-38.9 47.4-49.2V48c0-17.7-14.3-32-32-32s-32 14.3-32 32v8c0 4.4-3.6 8-8 8s-8-3.6-8-8V48zM304.2 69.9c6.9-5.5 15-9.6 23.9-11.9c.3 5.6 2.1 10.8 5 15.3c-7 1.6-13.4 4.8-18.9 9.2c-6.7 5.3-16.4 4.4-22-2C283.3 70.3 270.4 64 256 64s-27.3 6.3-36.1 16.4c-5.6 6.4-15.3 7.3-22 2C189.7 75.9 179.3 72 168 72c-22.5 0-41.5 15.6-46.6 36.5c-2 8.1-9.8 13.3-18 12c-2.4-.4-4.9-.6-7.4-.6c-26.5 0-48 21.5-48 48c0 4 .5 7.9 1.4 11.6c1.8 7.1-1.5 14.5-8 18C26.3 205.7 16 221.7 16 240s10.3 34.3 25.4 42.4c6.5 3.5 9.8 10.9 8 18C48.5 304.1 48 308 48 312c0 26.5 21.5 48 48 48c2.5 0 5-.2 7.4-.6c8.2-1.3 16 4 18 12c5.1 21 24.1 36.6 46.6 36.6c11.3 0 21.7-3.9 29.8-10.4c6.7-5.3 16.4-4.4 22 2c8.8 10.1 21.7 16.4 36.1 16.4s27.3-6.3 36.1-16.4c5.6-6.4 15.3-7.3 22-2c8.2 6.5 18.5 10.4 29.8 10.4c22.5 0 41.5-15.6 46.6-36.6c2-8.1 9.8-13.3 18-12c2.4 .4 4.9 .6 7.4 .6c3.9 0 7.6-.5 11.2-1.3c7.6 3 15.5 5.4 23.7 6.9c-8.4 5.5-18.1 9-28.5 10.1L397.6 481.2c-4.3 18.1-20.4 30.8-38.9 30.8H344c-22.1 0-40-17.9-40-40V448c0-4.4 3.6-8 8-8s8 3.6 8 8v24c0 13.3 10.7 24 24 24h14.7c11.1 0 20.8-7.7 23.4-18.5l23.4-99.4C397.6 404.6 373.1 424 344 424c-15 0-28.9-5.2-39.8-13.9c-11.7 13.4-29 21.9-48.2 21.9s-36.5-8.5-48.2-21.9C196.9 418.8 183 424 168 424c-29.1 0-53.6-19.4-61.4-45.9L130 477.5c2.6 10.8 12.2 18.5 23.4 18.5H168c13.3 0 24-10.7 24-24V448c0-4.4 3.6-8 8-8s8 3.6 8 8v24c0 22.1-17.9 40-40 40H153.3c-18.6 0-34.7-12.8-38.9-30.8L89.6 375.7C57.3 372.5 32 345.2 32 312c0-5.3 .7-10.5 1.9-15.5C13.7 285.7 0 264.5 0 240s13.7-45.7 33.9-56.5c-1.2-5-1.9-10.2-1.9-15.5c0-35.3 28.7-64 64-64c3.3 0 6.6 .3 9.8 .8C112.7 76.8 137.9 56 168 56c15 0 28.9 5.2 39.8 13.9C219.5 56.5 236.8 48 256 48s36.5 8.5 48.2 21.9zM560 164c0-46.4-37.6-84-84-84s-84 37.6-84 84v76c0 44.2 35.8 80 80 80h8c44.2 0 80-35.8 80-80V164zm16 0v23.4l17.1 9.8c10.2 5.8 22.9-1.5 22.9-13.3c0-5.1-2.5-9.8-6.7-12.6l-34.6-23.6c.9 5.3 1.3 10.8 1.3 16.3zM377.3 147.7l-34.6 23.6c-4.2 2.8-6.7 7.6-6.7 12.6c0 11.7 12.7 19.1 22.9 13.3l17.1-9.8V164c0-5.6 .5-11 1.3-16.3zM448 176a16 16 0 1 1 0 32 16 16 0 1 1 0-32zm48 16a16 16 0 1 1 32 0 16 16 0 1 1 -32 0z"/></svg>

<svg xmlns="http://www.w3.org/2000/svg" viewBox="0 0 640 512"><!--! Font Awesome Pro 6.1.1 by @fontawesome - https://fontawesome.com License - https://fontawesome.com/license (Commercial License) Copyright 2022 Fonticons, Inc. --><path d="M432 192C432 183.2 439.2 176 448 176C456.8 176 464 183.2 464 192C464 200.8 456.8 208 448 208C439.2 208 432 200.8 432 192zM528 192C528 200.8 520.8 208 512 208C503.2 208 496 200.8 496 192C496 183.2 503.2 176 512 176C520.8 176 528 183.2 528 192zM352 48C352 21.49 373.5 0 400 0C426.5 0 448 21.49 448 48V67.97C456.9 65.39 466.3 64 476 64C488.7 64 500.8 66.36 512 70.68V48C512 21.49 533.5 0 560 0C586.5 0 608 21.49 608 48V56C608 60.42 604.4 64 600 64C595.6 64 592 60.42 592 56V48C592 30.33 577.7 16 560 16C542.3 16 528 30.33 528 48V78.57C545.3 89.1 559.1 104.7 567.4 123.4L618.3 158C626.9 163.8 632 173.5 632 183.9C632 207.9 606 222.1 585.2 211L576 205.8V240C576 293 533 336 480 336H472C418.1 336 376 293 376 240V205.8L366.8 211C345.1 222.1 319.1 207.9 319.1 183.9C319.1 173.5 325.1 163.8 333.7 158L384.6 123.4C394.1 101.9 411 84.48 432 74.18V48C432 30.33 417.7 16 400 16C382.3 16 368 30.33 368 48V56C368 60.42 364.4 64 360 64C355.6 64 352 60.42 352 56V48zM476 80C429.6 80 392 117.6 392 164V240C392 284.2 427.8 320 472 320H480C524.2 320 560 284.2 560 240V164C560 117.6 522.4 80 476 80zM576 187.4L593.1 197.1C603.3 202.1 616 195.6 616 183.9C616 178.8 613.5 174.1 609.3 171.2L574.7 147.7C575.5 152.1 576 158.4 576 163.1V187.4zM377.3 147.7L342.7 171.2C338.5 174.1 336 178.8 336 183.9C336 195.6 348.7 202.1 358.9 197.1L376 187.4V164C376 158.4 376.5 152.1 377.3 147.7V147.7zM304.2 69.88C311.1 64.37 319.2 60.27 328.1 58C328.4 63.6 330.2 68.8 333 73.25C326 74.89 319.6 78.06 314.2 82.41C307.5 87.73 297.8 86.85 292.1 80.42C283.3 70.33 270.4 64 255.1 64C241.6 64 228.7 70.33 219.9 80.42C214.2 86.85 204.5 87.73 197.8 82.41C189.7 75.89 179.3 72 167.1 72C145.5 72 126.5 87.56 121.4 108.5C119.4 116.6 111.6 121.8 103.4 120.6C100.1 120.2 98.52 120 95.1 120C69.49 120 47.1 141.5 47.1 168C47.1 172 48.49 175.9 49.42 179.6C51.19 186.8 47.9 194.2 41.43 197.6C26.26 205.7 16 221.7 16 240C16 258.3 26.26 274.3 41.43 282.4C47.9 285.8 51.19 293.2 49.42 300.4C48.49 304.1 48 307.1 48 312C48 338.5 69.49 360 96 360C98.52 360 100.1 359.8 103.4 359.4C111.6 358.2 119.4 363.4 121.4 371.4C126.5 392.4 145.5 408 168 408C179.3 408 189.7 404.1 197.8 397.6C204.5 392.3 214.2 393.1 219.9 399.6C228.7 409.7 241.6 416 256 416C270.4 416 283.3 409.7 292.1 399.6C297.8 393.1 307.5 392.3 314.2 397.6C322.3 404.1 332.7 408 344 408C366.5 408 385.5 392.4 390.6 371.5C392.6 363.4 400.4 358.2 408.6 359.4C411 359.8 413.5 360 416 360C419.9 360 423.6 359.5 427.2 358.7C434.8 361.7 442.7 364 450.9 365.6C442.6 371.1 432.9 374.6 422.4 375.7L397.6 481.2C393.3 499.2 377.2 512 358.7 512H344C321.9 512 304 494.1 304 472V448C304 443.6 307.6 440 312 440C316.4 440 320 443.6 320 448V472C320 485.3 330.7 496 344 496H358.7C369.8 496 379.5 488.3 382 477.5L405.4 378.1C397.6 404.6 373.1 424 344 424C328.1 424 315.1 418.8 304.2 410.1C292.5 423.5 275.2 432 256 432C236.8 432 219.5 423.5 207.8 410.1C196.9 418.8 183 424 168 424C138.9 424 114.4 404.6 106.6 378.1L129.1 477.5C132.5 488.3 142.2 496 153.3 496H168C181.3 496 192 485.3 192 472V448C192 443.6 195.6 440 200 440C204.4 440 208 443.6 208 448V472C208 494.1 190.1 512 168 512H153.3C134.8 512 118.7 499.2 114.4 481.2L89.59 375.7C57.25 372.5 32 345.2 32 312C32 306.7 32.66 301.5 33.89 296.5C13.72 285.7 0 264.5 0 240C0 215.5 13.72 194.3 33.89 183.5C32.66 178.5 32 173.3 32 168C32 132.7 60.65 104 96 104C99.34 104 102.6 104.3 105.8 104.8C112.7 76.77 137.9 56 168 56C183 56 196.9 61.19 207.8 69.88C219.5 56.47 236.8 48 256 48C275.2 48 292.5 56.47 304.2 69.88H304.2z"/></svg>
